app/component-library/components/Icons/Icon/assets/global-search.svg

<svg width="24" height="24" viewBox="0 0 24 24" fill="none" xmlns="http://www.w3.org/2000/svg">
<path d="M22.0819 20.8202L21.3962 20.1344C21.7486 19.601 21.9581 18.9534 21.9581 18.2676C21.9581 16.3818 20.4342 14.8579 18.5484 14.8579C16.6626 14.8579 15.1387 16.3818 15.1387 18.2676C15.1387 20.1534 16.6626 21.6773 18.5484 21.6773C19.2437 21.6773 19.8818 21.4678 20.4152 21.1154L21.1009 21.8012C21.2343 21.9345 21.4152 22.0012 21.5867 22.0012C21.7676 22.0012 21.9391 21.9345 22.0724 21.8012C22.3486 21.525 22.3486 21.0868 22.0819 20.8202Z" fill="currentColor"/>
<path d="M3.26155 14.9816C3.26155 15.0102 3.2425 15.0483 3.2425 15.0768C4.11874 16.8293 5.5474 18.2675 7.29988 19.1342C7.32845 19.1342 7.36655 19.1152 7.39512 19.1152C7.0713 18.0104 6.82366 16.877 6.6427 15.7436C5.49977 15.5531 4.36638 15.3054 3.26155 14.9816Z" fill="currentColor"/>
<path d="M19.4913 7.17173C18.596 5.29543 17.0816 3.78106 15.2149 2.89529C15.5577 4.02869 15.8435 5.19066 16.0339 6.35264C17.1959 6.54312 18.3579 6.81933 19.4913 7.17173Z" fill="currentColor"/>
<path d="M3.16653 7.17173C4.30945 6.82885 5.47143 6.54312 6.6334 6.35264C6.82389 5.21924 7.06199 4.09536 7.38582 2.99053C7.35725 2.99053 7.31915 2.97149 7.29058 2.97149C5.5 3.85725 4.04277 5.35258 3.16653 7.17173Z" fill="currentColor"/>
<path d="M14.491 6.15262C14.2624 4.91446 13.9767 3.67629 13.5671 2.47622C13.5481 2.40955 13.5481 2.3524 13.5386 2.27621C12.8338 2.10477 12.0909 2 11.3289 2C10.5574 2 9.82406 2.10477 9.10973 2.28573C9.10021 2.3524 9.10973 2.40955 9.09068 2.48574C8.69066 3.68581 8.39541 4.91446 8.16682 6.15262C10.2717 5.92404 12.3861 5.92404 14.491 6.15262Z" fill="currentColor"/>
<path d="M6.43339 7.88623C5.18569 8.11481 3.96657 8.41007 2.75698 8.81009C2.69031 8.82914 2.63316 8.82914 2.56649 8.83866C2.38553 9.54347 2.28076 10.2864 2.28076 11.0483C2.28076 11.8198 2.38553 12.5532 2.56649 13.2675C2.63316 13.277 2.69031 13.2675 2.7665 13.2865C3.96657 13.6866 5.19522 13.9818 6.44291 14.2104C6.2048 12.1055 6.2048 9.99111 6.43339 7.88623Z" fill="currentColor"/>
<path d="M20.0912 8.83866C20.0245 8.83866 19.9674 8.82914 19.8912 8.81009C18.6911 8.41007 17.453 8.11481 16.2148 7.88623C16.4529 9.99111 16.4529 12.1055 16.2148 14.2009C17.453 13.9723 18.6911 13.6866 19.8912 13.277C19.9579 13.258 20.015 13.2675 20.0912 13.258C20.2627 12.5436 20.3769 11.8103 20.3769 11.0388C20.3769 10.2864 20.2722 9.55299 20.0912 8.83866Z" fill="currentColor"/>
<path d="M8.16652 15.9436C8.39511 17.1913 8.68084 18.4199 9.09039 19.62C9.10944 19.6866 9.09991 19.7438 9.10944 19.82C9.82376 19.9914 10.5571 20.0962 11.3286 20.0962C12.0906 20.0962 12.8335 19.9914 13.5383 19.8105C13.5478 19.7438 13.5478 19.6866 13.5668 19.6104C13.9669 18.4104 14.2621 17.1817 14.4907 15.934C13.443 16.0483 12.3858 16.1341 11.3286 16.1341C10.2714 16.1341 9.2142 16.0579 8.16652 15.9436Z" fill="currentColor"/>
<path d="M7.94776 7.667C7.66203 9.91475 7.66203 12.1815 7.94776 14.4388C10.1955 14.7246 12.4623 14.7246 14.7196 14.4388C15.0053 12.1911 15.0053 9.92427 14.7196 7.667C12.4623 7.38127 10.1955 7.38127 7.94776 7.667Z" fill="currentColor"/>
</svg>

<svg xmlns="http://www.w3.org/2000/svg" width="24" height="24" viewBox="0 0 24 24" fill="none"><path d="m22.082 20.82-.686-.686a3.406 3.406 0 0 0-2.848-5.276 3.406 3.406 0 0 0-3.41 3.41 3.406 3.406 0 0 0 5.277 2.847l.686.686a.693.693 0 0 0 .98-.98zM3.262 14.982c0 .028-.02.066-.02.095A9.042 9.042 0 0 0 7.3 19.134c.028 0 .067-.019.095-.019a27.337 27.337 0 0 1-.752-3.371 28.955 28.955 0 0 1-3.381-.762zM19.491 7.172a9.048 9.048 0 0 0-4.276-4.277c.343 1.134.629 2.296.819 3.458 1.162.19 2.324.466 3.457.819zM3.167 7.172a27.73 27.73 0 0 1 3.466-.82c.19-1.133.429-2.257.753-3.361-.029 0-.067-.02-.095-.02-1.791.886-3.248 2.382-4.124 4.2zM14.491 6.153c-.229-1.239-.514-2.477-.924-3.677-.019-.066-.019-.124-.028-.2A9.36 9.36 0 0 0 11.329 2c-.772 0-1.505.105-2.22.286-.009.066 0 .124-.018.2-.4 1.2-.696 2.428-.924 3.667a29.248 29.248 0 0 1 6.324 0zM6.433 7.886a27.316 27.316 0 0 0-3.676.924c-.067.02-.124.02-.19.029a8.893 8.893 0 0 0-.286 2.21c0 .77.105 1.504.285 2.219.067.009.124 0 .2.018 1.2.4 2.43.696 3.677.924a28.654 28.654 0 0 1-.01-6.324zM20.091 8.839a.779.779 0 0 1-.2-.029c-1.2-.4-2.438-.695-3.676-.924.238 2.105.238 4.22 0 6.315 1.238-.229 2.476-.514 3.676-.924.067-.019.124-.01.2-.019a9.44 9.44 0 0 0 .286-2.22c0-.752-.105-1.485-.286-2.2zM8.167 15.944c.228 1.247.514 2.476.923 3.676.02.067.01.124.02.2a9.442 9.442 0 0 0 2.219.276c.762 0 1.505-.105 2.21-.285.009-.067.009-.124.028-.2.4-1.2.695-2.43.924-3.677-1.048.114-2.105.2-3.162.2-1.058 0-2.115-.076-3.162-.19zM7.948 7.667a26.856 26.856 0 0 0 0 6.772 26.85 26.85 0 0 0 6.772 0 26.859 26.859 0 0 0 0-6.772 26.856 26.856 0 0 0-6.772 0z" fill="currentColor"/></svg>
